X:94
T:Pandean Dance in Tekeli. RH.094
R:Jig
S:Rev.R.Harrison’s MS,c1815,Cumbria
N:I undotted the last crotchet. PJH.
O:England
A:Temple Sowerby,Cumbria
Z:vmp.Simon Wilson. Review PJH, 2008.
M:6/8
L:1/8
Q:3/8=120
K:D
A|d2d {e}dcd|B2B Bed|cBA ABc|d2f a2A|!
d2d {e}dcd|B2B Bed|cBA ABc|dAF D2||!
f|g2e efe|c2A ABA|a2a aba|f2d d2A|!
{e}dcd {f}ede|{g}fef {a}gfg|\
aba agf|[d3f3] ” DC”[c2e2]|]

